dist/assets/img/social/vk.svg

<svg width="28" height="15" viewBox="0 0 28 15" fill="none" xmlns="http://www.w3.org/2000/svg">
<path fill-rule="evenodd" clip-rule="evenodd" d="M15.3732 14.9373C15.3732 14.9373 15.8785 14.8846 16.1373 14.6235C16.3743 14.3843 16.366 13.933 16.366 13.933C16.366 13.933 16.3345 11.8252 17.3767 11.514C18.4038 11.208 19.7226 13.5523 21.1222 14.4538C22.1795 15.1353 22.982 14.9862 22.982 14.9862L26.7221 14.9373C26.7221 14.9373 28.6777 14.8241 27.7505 13.38C27.6738 13.2617 27.2096 12.3113 24.9705 10.3592C22.6246 8.31579 22.9395 8.64629 25.7634 5.11113C27.4835 2.9584 28.171 1.64413 27.956 1.08215C27.7519 0.544615 26.4865 0.687359 26.4865 0.687359L22.2767 0.711793C22.2767 0.711793 21.9645 0.671927 21.733 0.801811C21.5071 0.929123 21.3605 1.22618 21.3605 1.22618C21.3605 1.22618 20.695 2.89153 19.8062 4.30868C17.9314 7.2973 17.1822 7.45547 16.8755 7.27029C16.162 6.83692 16.34 5.53165 16.34 4.60445C16.34 1.70714 16.8084 0.499606 15.4293 0.187113C14.9719 0.0829483 14.635 0.0147914 13.4641 0.00321757C11.9618 -0.0109282 10.6909 0.00836147 9.97056 0.338858C9.49124 0.558761 9.12148 1.05001 9.34745 1.0783C9.62545 1.11302 10.2554 1.23776 10.5896 1.6647C11.021 2.21639 11.0059 3.4535 11.0059 3.4535C11.0059 3.4535 11.2538 6.86392 10.4266 7.28701C9.85963 7.57764 9.08177 6.9848 7.40963 4.27267C6.5537 2.88381 5.90731 1.34835 5.90731 1.34835C5.90731 1.34835 5.78269 1.06158 5.55946 0.907262C5.28967 0.720794 4.91307 0.662925 4.91307 0.662925L0.912812 0.687359C0.912812 0.687359 0.311609 0.702791 0.091123 0.948413C-0.104713 1.16574 0.0760587 1.61712 0.0760587 1.61712C0.0760587 1.61712 3.20806 8.4984 6.75502 11.9667C10.0075 15.1456 13.6997 14.9373 13.6997 14.9373H15.3732Z" fill="#656565"/>
</svg>

<svg width="28" height="15" viewBox="0 0 28 15" fill="none" xmlns="http://www.w3.org/2000/svg"><path fill-rule="evenodd" clip-rule="evenodd" d="M15.373 14.937s.506-.052.764-.313c.237-.24.229-.691.229-.691s-.032-2.108 1.01-2.419c1.028-.306 2.347 2.038 3.746 2.94 1.058.681 1.86.532 1.86.532l3.74-.049s1.956-.113 1.028-1.557c-.076-.118-.54-1.069-2.78-3.02-2.345-2.044-2.03-1.714.793-5.249 1.72-2.153 2.408-3.467 2.193-4.029-.204-.537-1.47-.395-1.47-.395l-4.21.025s-.311-.04-.543.09c-.226.127-.373.424-.373.424s-.665 1.666-1.554 3.083c-1.875 2.988-2.624 3.146-2.93 2.961-.714-.433-.536-1.738-.536-2.666 0-2.897.468-4.104-.91-4.417-.458-.104-.795-.172-1.966-.184-1.502-.014-2.773.005-3.493.336-.48.22-.85.711-.624.74.278.034.908.159 1.243.586.431.551.416 1.788.416 1.788s.248 3.41-.58 3.834c-.566.29-1.344-.302-3.016-3.014-.856-1.39-1.503-2.925-1.503-2.925s-.124-.286-.348-.44C5.29.72 4.913.662 4.913.662l-4 .024S.312.703.09.948c-.196.218-.015.67-.015.67s3.132 6.88 6.679 10.349c3.253 3.179 6.945 2.97 6.945 2.97h1.673z" fill="#656565"/></svg>
